X: 33
T: The French Assembly
R:
M: 3/8
L: 1/16
Z: 2011 John Chambers <jc:trillian.mit.edu>
B: Charles & Samuel Thompson eds "Twenty Four Country Dances", London 1774, p.17 #1
K: G
% - - - - - - - - - - - - - - - - - - - - - - - - -
|: c2cBcA | B2BABG | A2AFAF | G2D2D2 |\
   c2cBcA | B2BABG | A2AFAF | G6 :|
|: G2g2g2 | G2g2g2 | agfedc | BcdBG2 |\
   G2g2g2 | G2g2g2 | fafde^c | d6 |
   c2cBcA | B2BABG | A2AFAF | G2D2D2 |\
   c2cBcA | B2BABG | A2AFAF | G6 :|
% - - - - - - - - Dance description - - - - - - - -
%%begintext align
%% Allemand to the Right & cast off .|. Allemand to the Left
%% and cast up :|. hands 4 across quite round cross over & turn .|:
%% hands 6 round back to back lead thro' the top & cast off :|:
%%endtext

%%sep 1 1 500
